X:2939
T:Engelska efter Martin Martinsson
S:Efter Carin Funseth
Z:[[http://www.bluerose.karenlmyers.org/IncipitsEngelska2.html|Karen Myers (#2939)]]
Z:Upptecknad 6/2007
M:2/4
L:1/16
R:Engelska
K:G
(D2 |: G2)B2 d2>d2 | (ef)ge d2Bd | (cB)Ac (BA)GB | (AG)FA D2(D2 |
G2)B2 d2>d2 | (ef)ge d2Bd | (cB)Ac (BA)GB |1 (AG)FA G2(D2 :|2 (AG)FA G2Bc ||
|: d2BA G2Bc | d2BA G2AB | (ce)ee (ce)ee | (ef)ge d2Bc |
d2BA G2Bc | d2BA G2AB | c2e2 (ec)(AF) |1 G2B2 G2(Bc) :|2 G2B2 G2 z2 |]
